X:802
T:Hestleyside Ride
M:2/2
L:1/8
K:A
P:A
A>B|"A"c2e>c "E7"B>AB>c|"A"A>Bc>de2f>g|"D"a>ga>f "A"e>cB>A|"Bm"f2B2 "E7"B2A>B|
"A"c2e>c "E7"B>AB>c|"F#m"A>Bc>d "C#m"e2f>g|"D"a>ga>f "E7"e>cA>B|"A"c2A2A2||
P:B
c>e|"D"f>ef>g a>ga>f|"A"e>cA>c e2c>e|"D"f>ef>g a>ga>f|"Bm"e>cA>c "E7"B2A>B|
"A"c2e>c "E7"B>AB>c|"F#m"A>Bc>d "C#m"e2f>g|"D"a>ga>f "E"e>cA>B|"A"c2A2A2|]
T:Harmony
P:A
(3efg|"A"a2e>a "E7"f>e d>f|"A"e>dc>B A2B>c|\
"D"d>c (3Bcd "A"c>B (3ABc|"Bm"B2^d2 "E7"(3e2f2g2|
"A"a2e>a "E7"f>e d>f|"F#m"e>fe>d "C#m"c2B>c|\
"D"d>ed>c "E7"B>AG>F|"A"E2A2 A2||
P:B
B>c|"D"d>cd>e f>ef>d|"A"c>AE>A c2B>c|\
"D"d>cd>e f2a>a|"Bm"g>ag>f "E7"e2 (3efg|
"A"a2e>a "E7"f>e d>f|"F#m"e>fe>d "C#m"c2B>c|\
"D"d>ed>c "E7"B>AG>F|"A"E2A2 A2||



